X: 140
T: Try Again
O: Scotch Air.
%R: air, march
B: "The Everyday Song Book", 1927
F: http://www.library.pitt.edu/happybirthday/pdf/The_Everyday_Song_Book.pdf
Z: 2017 John Chambers <jc:trillian.mit.edu>
M: 4/4
L: 1/8
K: A
% - - - - - - - - - - - - - - - - - - - - - - - - - - - - -
[| E2 A2 G2 A2 | B2 c2 G4 | A4 B4 | c2 A2 A2 z2 | E2 A2 G2 A2 |
w: 'Tis a les-son you should heed, Try, try, try a-gain; If at first you
%
B2 c2 G4 | A4 B4 | c2 A2 A2 z2 | c2 e2 e2 (dc) | d2 d2 d2 z2 | d2 c2
w: don't suc-ceed, Try, try, try a-gain; Then your cour-age* should ap-pear, For if
%
B2 A2 | G2 B2 E4 | e2 (fe) d2 c2 | (Bc) (dB) G4 | A4 B4 | c2 A2 A2 z2 |]
w: you will per-se-ver, You will* con-quer, nev-*er* fear! Try, try, try a-agin.
% - - - - - - - - - - - - - - - - - - - - - - - - - - - - -

